icons/arrow-crash-top.svg

<svg width="24" height="25" viewBox="0 0 24 25" fill="none" xmlns="http://www.w3.org/2000/svg">
<path fill-rule="evenodd" clip-rule="evenodd" d="M12 6.75391C12.4142 6.75391 12.75 7.08969 12.75 7.50391V17.5039C12.75 17.9181 12.4142 18.2539 12 18.2539C11.5858 18.2539 11.25 17.9181 11.25 17.5039V7.50391C11.25 7.08969 11.5858 6.75391 12 6.75391Z" fill="black"/>
<path fill-rule="evenodd" clip-rule="evenodd" d="M11.931 8.25323L8.23737 12.0466C7.9484 12.3434 7.47357 12.3498 7.1768 12.0608C6.88003 11.7718 6.8737 11.297 7.16266 11.0002L10.8696 7.19306C11.4625 6.60017 12.4374 6.60021 13.0303 7.19311L13.0374 7.20018L16.7374 11.0002C17.0263 11.297 17.02 11.7718 16.7232 12.0608C16.4265 12.3498 15.9516 12.3434 15.6627 12.0466L11.9691 8.25323C11.9673 8.25187 11.9618 8.24844 11.95 8.24844C11.9382 8.24844 11.9327 8.25187 11.931 8.25323Z" fill="black"/>
<path fill-rule="evenodd" clip-rule="evenodd" d="M5.25 7.49609C5.25 7.08188 5.58579 6.74609 6 6.74609H18C18.4142 6.74609 18.75 7.08188 18.75 7.49609C18.75 7.91031 18.4142 8.24609 18 8.24609H6C5.58579 8.24609 5.25 7.91031 5.25 7.49609Z" fill="black"/>
</svg>

<svg xmlns="http://www.w3.org/2000/svg" fill="none" viewBox="0 0 24 25">
  <path fill="#000" fill-rule="evenodd" d="M12 6.754a.75.75 0 0 1 .75.75v10a.75.75 0 0 1-1.5 0v-10a.75.75 0 0 1 .75-.75Z" clip-rule="evenodd"/>
  <path fill="#000" fill-rule="evenodd" d="m11.931 8.253-3.694 3.794A.75.75 0 1 1 7.163 11l3.707-3.807a1.535 1.535 0 0 1 2.16 0l.007.007 3.7 3.8a.75.75 0 0 1-1.074 1.047l-3.694-3.794c-.002-.001-.007-.005-.019-.005s-.017.004-.019.005Z" clip-rule="evenodd"/>
  <path fill="#000" fill-rule="evenodd" d="M5.25 7.496a.75.75 0 0 1 .75-.75h12a.75.75 0 0 1 0 1.5H6a.75.75 0 0 1-.75-.75Z" clip-rule="evenodd"/>
</svg>
